X:1376
T:Ben Lowrey's Reel
M:2/4
L:1/16
K:G
BA|G2GA Bdd2|efge dBB2|efge dBGA|BAAB AcBA|!
G2GA Bdd2|efge dBB2|gfge dBge|dBAB G2:|!
|:B2|dbag efge|dBgB BAA2|dbag efge|dgfa g2ga|!
bagf gfed|egdB BAA2|GFGA Bdd2|egfa g2:|!


